scripts/projects/editorial.cube
# Katherine Feemster — editorial teal/amber LUT (33-pt cube)
LUT_3D_SIZE 33
DOMAIN_MIN 0.0 0.0 0.0
DOMAIN_MAX 1.0 1.0 1.0
0.027000 0.072000 0.072000
0.054230 0.072159 0.071771
0.081460 0.072319 0.071542
0.108691 0.072478 0.071312
0.135921 0.072638 0.071083
0.163151 0.072797 0.070854
0.190381 0.072957 0.070625
0.217611 0.073116 0.070396
0.244842 0.073276 0.070166
0.272072 0.073435 0.069937
0.299302 0.073594 0.069708
0.326532 0.073754 0.069479
0.353762 0.073913 0.069249
0.380993 0.074073 0.069020
0.408223 0.074232 0.068791
0.435453 0.074392 0.068562
0.462683 0.074551 0.068333
0.489913 0.074711 0.068103
0.517144 0.074870 0.067874
0.544374 0.075030 0.067645
0.571604 0.075189 0.067416
0.598834 0.075348 0.067187
0.626064 0.075508 0.066957
0.653295 0.075667 0.066728
0.680525 0.075827 0.066499
0.707755 0.075986 0.066270
0.734985 0.076146 0.066041
0.762215 0.076305 0.065811
0.789446 0.076465 0.065582
0.816676 0.076624 0.065353
0.843906 0.076783 0.065124
0.871136 0.076943 0.064895
0.898366 0.077102 0.064665
0.029246 0.099099 0.071229
0.056476 0.099258 0.071000
0.083707 0.099418 0.070771
0.110937 0.099577 0.070541
0.138167 0.099737 0.070312
0.165397 0.099896 0.070083
0.192627 0.100056 0.069854
0.219858 0.100215 0.069624
0.247088 0.100374 0.069395
0.274318 0.100534 0.069166
0.301548 0.100693 0.068937
0.328778 0.100853 0.068708
0.356009 0.101012 0.068478
0.383239 0.101172 0.068249
0.410469 0.101331 0.068020
0.437699 0.101491 0.067791
0.464929 0.101650 0.067562
0.492160 0.101810 0.067332
0.519390 0.101969 0.067103
0.546620 0.102128 0.066874
0.573850 0.102288 0.066645
0.601080 0.102447 0.066416
0.628311 0.102607 0.066186
0.655541 0.102766 0.065957
0.682771 0.102926 0.065728
0.710001 0.103085 0.065499
0.737231 0.103245 0.065269
0.764461 0.103404 0.065040
0.791692 0.103564 0.064811
0.818922 0.103723 0.064582
0.846152 0.103882 0.064353
0.873382 0.104042 0.064123
0.900612 0.104201 0.063894
0.031492 0.126198 0.070458
0.058723 0.126357 0.070229
0.085953 0.126517 0.069999
0.113183 0.126676 0.069770
0.140413 0.126836 0.069541
0.167643 0.126995 0.069312
0.194874 0.127155 0.069083
0.222104 0.127314 0.068853
0.249334 0.127473 0.068624
0.276564 0.127633 0.068395
0.303794 0.127792 0.068166
0.331025 0.127952 0.067937
0.358255 0.128111 0.067707
0.385485 0.128271 0.067478
0.412715 0.128430 0.067249
0.439945 0.128590 0.067020
0.467175 0.128749 0.066791
0.494406 0.128908 0.066561
0.521636 0.129068 0.066332
0.548866 0.129227 0.066103
0.576096 0.129387 0.065874
0.603326 0.129546 0.065644
0.630557 0.129706 0.065415
0.657787 0.129865 0.065186
0.685017 0.130025 0.064957
0.712247 0.130184 0.064728
0.739477 0.130344 0.064498
0.766708 0.130503 0.064269
0.793938 0.130662 0.064040
0.821168 0.130822 0.063811
0.848398 0.130981 0.063582
0.875628 0.131141 0.063352
0.902859 0.131300 0.063123
0.033739 0.153297 0.069687
0.060969 0.153456 0.069458
0.088199 0.153616 0.069228
0.115429 0.153775 0.068999
0.142659 0.153934 0.068770
0.169890 0.154094 0.068541
0.197120 0.154253 0.068312
0.224350 0.154413 0.068082
0.251580 0.154572 0.067853
0.278810 0.154732 0.067624
0.306040 0.154891 0.067395
0.333271 0.155051 0.067165
0.360501 0.155210 0.066936
0.387731 0.155370 0.066707
0.414961 0.155529 0.066478
0.442191 0.155688 0.066249
0.469422 0.155848 0.066019
0.496652 0.156007 0.065790
0.523882 0.156167 0.065561
0.551112 0.156326 0.065332
0.578342 0.156486 0.065103
0.605573 0.156645 0.064873
0.632803 0.156805 0.064644
0.660033 0.156964 0.064415
0.687263 0.157123 0.064186
0.714493 0.157283 0.063957
0.741724 0.157442 0.063727
0.768954 0.157602 0.063498
0.796184 0.157761 0.063269
0.823414 0.157921 0.063040
0.850644 0.158080 0.062810
0.877875 0.158240 0.062581
0.905105 0.158399 0.062352
0.035985 0.180396 0.068916
0.063215 0.180555 0.068686
0.090445 0.180715 0.068457
0.117675 0.180874 0.068228
0.144905 0.181033 0.067999
0.172136 0.181193 0.067770
0.199366 0.181352 0.067540
0.226596 0.181512 0.067311
0.253826 0.181671 0.067082
0.281056 0.181831 0.066853
0.308287 0.181990 0.066624
0.335517 0.182150 0.066394
0.362747 0.182309 0.066165
0.389977 0.182468 0.065936
0.417207 0.182628 0.065707
0.444438 0.182787 0.065478
0.471668 0.182947 0.065248
0.498898 0.183106 0.065019
0.526128 0.183266 0.064790
0.553358 0.183425 0.064561
0.580589 0.183585 0.064332
0.607819 0.183744 0.064102
0.635049 0.183903 0.063873
0.662279 0.184063 0.063644
0.689509 0.184222 0.063415
0.716740 0.184382 0.063185
0.743970 0.184541 0.062956
0.771200 0.184701 0.062727
0.798430 0.184860 0.062498
0.825660 0.185020 0.062269
0.852891 0.185179 0.062039
0.880121 0.185339 0.061810
0.907351 0.185498 0.061581
0.038231 0.207494 0.068145
0.065461 0.207654 0.067915
0.092691 0.207813 0.067686
0.119921 0.207973 0.067457
0.147152 0.208132 0.067228
0.174382 0.208292 0.066999
0.201612 0.208451 0.066769
0.228842 0.208611 0.066540
0.256072 0.208770 0.066311
0.283303 0.208930 0.066082
0.310533 0.209089 0.065853
0.337763 0.209248 0.065623
0.364993 0.209408 0.065394
0.392223 0.209567 0.065165
0.419454 0.209727 0.064936
0.446684 0.209886 0.064706
0.473914 0.210046 0.064477
0.501144 0.210205 0.064248
0.528374 0.210365 0.064019
0.555605 0.210524 0.063790
0.582835 0.210684 0.063560
0.610065 0.210843 0.063331
0.637295 0.211002 0.063102
0.664525 0.211162 0.062873
0.691756 0.211321 0.062644
0.718986 0.211481 0.062414
0.746216 0.211640 0.062185
0.773446 0.211800 0.061956
0.800676 0.211959 0.061727
0.827907 0.212119 0.061498
0.855137 0.212278 0.061268
0.882367 0.212437 0.061039
0.909597 0.212597 0.060810
0.040477 0.234593 0.067374
0.067707 0.234753 0.067144
0.094937 0.234912 0.066915
0.122168 0.235072 0.066686
0.149398 0.235231 0.066457
0.176628 0.235391 0.066228
0.203858 0.235550 0.065998
0.231088 0.235710 0.065769
0.258319 0.235869 0.065540
0.285549 0.236028 0.065311
0.312779 0.236188 0.065081
0.340009 0.236347 0.064852
0.367239 0.236507 0.064623
0.394470 0.236666 0.064394
0.421700 0.236826 0.064165
0.448930 0.236985 0.063935
0.476160 0.237145 0.063706
0.503390 0.237304 0.063477
0.530621 0.237463 0.063248
0.557851 0.237623 0.063019
0.585081 0.237782 0.062789
0.612311 0.237942 0.062560
0.639541 0.238101 0.062331
0.666772 0.238261 0.062102
0.694002 0.238420 0.061873
0.721232 0.238580 0.061643
0.748462 0.238739 0.061414
0.775692 0.238899 0.061185
0.802923 0.239058 0.060956
0.830153 0.239217 0.060726
0.857383 0.239377 0.060497
0.884613 0.239536 0.060268
0.911843 0.239696 0.060039
0.042723 0.261692 0.066602
0.069953 0.261852 0.066373
0.097184 0.262011 0.066144
0.124414 0.262171 0.065915
0.151644 0.262330 0.065686
0.178874 0.262490 0.065456
0.206104 0.262649 0.065227
0.233335 0.262808 0.064998
0.260565 0.262968 0.064769
0.287795 0.263127 0.064540
0.315025 0.263287 0.064310
0.342255 0.263446 0.064081
0.369486 0.263606 0.063852
0.396716 0.263765 0.063623
0.423946 0.263925 0.063394
0.451176 0.264084 0.063164
0.478406 0.264243 0.062935
0.505637 0.264403 0.062706
0.532867 0.264562 0.062477
0.560097 0.264722 0.062247
0.587327 0.264881 0.062018
0.614557 0.265041 0.061789
0.641788 0.265200 0.061560
0.669018 0.265360 0.061331
0.696248 0.265519 0.061101
0.723478 0.265679 0.060872
0.750708 0.265838 0.060643
0.777939 0.265997 0.060414
0.805169 0.266157 0.060185
0.832399 0.266316 0.059955
0.859629 0.266476 0.059726
0.886859 0.266635 0.059497
0.914090 0.266795 0.059268
0.044969 0.288791 0.065831
0.072200 0.288951 0.065602
0.099430 0.289110 0.065373
0.126660 0.289270 0.065144
0.153890 0.289429 0.064915
0.181120 0.289588 0.064685
0.208351 0.289748 0.064456
0.235581 0.289907 0.064227
0.262811 0.290067 0.063998
0.290041 0.290226 0.063769
0.317271 0.290386 0.063539
0.344502 0.290545 0.063310
0.371732 0.290705 0.063081
0.398962 0.290864 0.062852
0.426192 0.291023 0.062622
0.453422 0.291183 0.062393
0.480653 0.291342 0.062164
0.507883 0.291502 0.061935
0.535113 0.291661 0.061706
0.562343 0.291821 0.061476
0.589573 0.291980 0.061247
0.616804 0.292140 0.061018
0.644034 0.292299 0.060789
0.671264 0.292459 0.060560
0.698494 0.292618 0.060330
0.725724 0.292777 0.060101
0.752955 0.292937 0.059872
0.780185 0.293096 0.059643
0.807415 0.293256 0.059414
0.834645 0.293415 0.059184
0.861875 0.293575 0.058955
0.889106 0.293734 0.058726
0.916336 0.293894 0.058497
0.047216 0.315890 0.065060
0.074446 0.316050 0.064831
0.101676 0.316209 0.064602
0.128906 0.316368 0.064373
0.156136 0.316528 0.064143
0.183367 0.316687 0.063914
0.210597 0.316847 0.063685
0.237827 0.317006 0.063456
0.265057 0.317166 0.063227
0.292287 0.317325 0.062997
0.319518 0.317485 0.062768
0.346748 0.317644 0.062539
0.373978 0.317803 0.062310
0.401208 0.317963 0.062081
0.428438 0.318122 0.061851
0.455669 0.318282 0.061622
0.482899 0.318441 0.061393
0.510129 0.318601 0.061164
0.537359 0.318760 0.060935
0.564589 0.318920 0.060705
0.591820 0.319079 0.060476
0.619050 0.319239 0.060247
0.646280 0.319398 0.060018
0.673510 0.319557 0.059789
0.700740 0.319717 0.059559
0.727970 0.319876 0.059330
0.755201 0.320036 0.059101
0.782431 0.320195 0.058872
0.809661 0.320355 0.058642
0.836891 0.320514 0.058413
0.864121 0.320674 0.058184
0.891352 0.320833 0.057955
0.918582 0.320993 0.057726
0.049462 0.342989 0.064289
0.076692 0.343148 0.064060
0.103922 0.343308 0.063831
0.131152 0.343467 0.063602
0.158383 0.343627 0.063372
0.185613 0.343786 0.063143
0.212843 0.343946 0.062914
0.240073 0.344105 0.062685
0.267303 0.344265 0.062456
0.294534 0.344424 0.062226
0.321764 0.344583 0.061997
0.348994 0.344743 0.061768
0.376224 0.344902 0.061539
0.403454 0.345062 0.061310
0.430685 0.345221 0.061080
0.457915 0.345381 0.060851
0.485145 0.345540 0.060622
0.512375 0.345700 0.060393
0.539605 0.345859 0.060163
0.566835 0.346019 0.059934
0.594066 0.346178 0.059705
0.621296 0.346337 0.059476
0.648526 0.346497 0.059247
0.675756 0.346656 0.059017
0.702986 0.346816 0.058788
0.730217 0.346975 0.058559
0.757447 0.347135 0.058330
0.784677 0.347294 0.058101
0.811907 0.347454 0.057871
0.839137 0.347613 0.057642
0.866368 0.347772 0.057413
0.893598 0.347932 0.057184
0.920828 0.348091 0.056955
0.051708 0.370088 0.063518
0.078938 0.370247 0.063289
0.106168 0.370407 0.063060
0.133399 0.370566 0.062831
0.160629 0.370726 0.062601
0.187859 0.370885 0.062372
0.215089 0.371045 0.062143
0.242319 0.371204 0.061914
0.269549 0.371363 0.061684
0.296780 0.371523 0.061455
0.324010 0.371682 0.061226
0.351240 0.371842 0.060997
0.378470 0.372001 0.060768
0.405700 0.372161 0.060538
0.432931 0.372320 0.060309
0.460161 0.372480 0.060080
0.487391 0.372639 0.059851
0.514621 0.372799 0.059622
0.541851 0.372958 0.059392
0.569082 0.373117 0.059163
0.596312 0.373277 0.058934
0.623542 0.373436 0.058705
0.650772 0.373596 0.058476
0.678002 0.373755 0.058246
0.705233 0.373915 0.058017
0.732463 0.374074 0.057788
0.759693 0.374234 0.057559
0.786923 0.374393 0.057330
0.814153 0.374553 0.057100
0.841384 0.374712 0.056871
0.868614 0.374871 0.056642
0.895844 0.375031 0.056413
0.923074 0.375190 0.056183
0.053954 0.397187 0.062747
0.081184 0.397346 0.062518
0.108414 0.397506 0.062289
0.135645 0.397665 0.062059
0.162875 0.397825 0.061830
0.190105 0.397984 0.061601
0.217335 0.398143 0.061372
0.244565 0.398303 0.061143
0.271796 0.398462 0.060913
0.299026 0.398622 0.060684
0.326256 0.398781 0.060455
0.353486 0.398941 0.060226
0.380716 0.399100 0.059997
0.407947 0.399260 0.059767
0.435177 0.399419 0.059538
0.462407 0.399579 0.059309
0.489637 0.399738 0.059080
0.516867 0.399897 0.058851
0.544098 0.400057 0.058621
0.571328 0.400216 0.058392
0.598558 0.400376 0.058163
0.625788 0.400535 0.057934
0.653018 0.400695 0.057704
0.680249 0.400854 0.057475
0.707479 0.401014 0.057246
0.734709 0.401173 0.057017
0.761939 0.401332 0.056788
0.789169 0.401492 0.056558
0.816400 0.401651 0.056329
0.843630 0.401811 0.056100
0.870860 0.401970 0.055871
0.898090 0.402130 0.055642
0.925320 0.402289 0.055412
0.056200 0.424286 0.061976
0.083430 0.424445 0.061747
0.110661 0.424605 0.061518
0.137891 0.424764 0.061288
0.165121 0.424923 0.061059
0.192351 0.425083 0.060830
0.219581 0.425242 0.060601
0.246812 0.425402 0.060372
0.274042 0.425561 0.060142
0.301272 0.425721 0.059913
0.328502 0.425880 0.059684
0.355732 0.426040 0.059455
0.382963 0.426199 0.059226
0.410193 0.426359 0.058996
0.437423 0.426518 0.058767
0.464653 0.426677 0.058538
0.491883 0.426837 0.058309
0.519114 0.426996 0.058079
0.546344 0.427156 0.057850
0.573574 0.427315 0.057621
0.600804 0.427475 0.057392
0.628034 0.427634 0.057163
0.655265 0.427794 0.056933
0.682495 0.427953 0.056704
0.709725 0.428112 0.056475
0.736955 0.428272 0.056246
0.764185 0.428431 0.056017
0.791416 0.428591 0.055787
0.818646 0.428750 0.055558
0.845876 0.428910 0.055329
0.873106 0.429069 0.055100
0.900336 0.429229 0.054871
0.927567 0.429388 0.054641
0.058446 0.451385 0.061205
0.085677 0.451544 0.060976
0.112907 0.451703 0.060747
0.140137 0.451863 0.060517
0.167367 0.452022 0.060288
0.194597 0.452182 0.060059
0.221828 0.452341 0.059830
0.249058 0.452501 0.059600
0.276288 0.452660 0.059371
0.303518 0.452820 0.059142
0.330748 0.452979 0.058913
0.357979 0.453139 0.058684
0.385209 0.453298 0.058454
0.412439 0.453457 0.058225
0.439669 0.453617 0.057996
0.466899 0.453776 0.057767
0.494130 0.453936 0.057538
0.521360 0.454095 0.057308
0.548590 0.454255 0.057079
0.575820 0.454414 0.056850
0.603050 0.454574 0.056621
0.630281 0.454733 0.056392
0.657511 0.454893 0.056162
0.684741 0.455052 0.055933
0.711971 0.455211 0.055704
0.739201 0.455371 0.055475
0.766432 0.455530 0.055246
0.793662 0.455690 0.055016
0.820892 0.455849 0.054787
0.848122 0.456009 0.054558
0.875352 0.456168 0.054329
0.902583 0.456328 0.054099
0.929813 0.456487 0.053870
0.060693 0.478484 0.060434
0.087923 0.478643 0.060205
0.115153 0.478802 0.059975
0.142383 0.478962 0.059746
0.169613 0.479121 0.059517
0.196844 0.479281 0.059288
0.224074 0.479440 0.059059
0.251304 0.479600 0.058829
0.278534 0.479759 0.058600
0.305764 0.479919 0.058371
0.332995 0.480078 0.058142
0.360225 0.480237 0.057913
0.387455 0.480397 0.057683
0.414685 0.480556 0.057454
0.441915 0.480716 0.057225
0.469146 0.480875 0.056996
0.496376 0.481035 0.056767
0.523606 0.481194 0.056537
0.550836 0.481354 0.056308
0.578066 0.481513 0.056079
0.605297 0.481673 0.055850
0.632527 0.481832 0.055620
0.659757 0.481991 0.055391
0.686987 0.482151 0.055162
0.714217 0.482310 0.054933
0.741448 0.482470 0.054704
0.768678 0.482629 0.054474
0.795908 0.482789 0.054245
0.823138 0.482948 0.054016
0.850368 0.483108 0.053787
0.877599 0.483267 0.053558
0.904829 0.483426 0.053328
0.932059 0.483586 0.053099
0.062939 0.505582 0.059663
0.090169 0.505742 0.059434
0.117399 0.505901 0.059204
0.144629 0.506061 0.058975
0.171860 0.506220 0.058746
0.199090 0.506380 0.058517
0.226320 0.506539 0.058288
0.253550 0.506699 0.058058
0.280780 0.506858 0.057829
0.308011 0.507017 0.057600
0.335241 0.507177 0.057371
0.362471 0.507336 0.057141
0.389701 0.507496 0.056912
0.416931 0.507655 0.056683
0.444162 0.507815 0.056454
0.471392 0.507974 0.056225
0.498622 0.508134 0.055995
0.525852 0.508293 0.055766
0.553082 0.508452 0.055537
0.580313 0.508612 0.055308
0.607543 0.508771 0.055079
0.634773 0.508931 0.054849
0.662003 0.509090 0.054620
0.689233 0.509250 0.054391
0.716464 0.509409 0.054162
0.743694 0.509569 0.053933
0.770924 0.509728 0.053703
0.798154 0.509888 0.053474
0.825384 0.510047 0.053245
0.852615 0.510206 0.053016
0.879845 0.510366 0.052787
0.907075 0.510525 0.052557
0.934305 0.510685 0.052328
0.065185 0.532681 0.058892
0.092415 0.532841 0.058663
0.119645 0.533000 0.058433
0.146876 0.533160 0.058204
0.174106 0.533319 0.057975
0.201336 0.533479 0.057746
0.228566 0.533638 0.057516
0.255796 0.533797 0.057287
0.283027 0.533957 0.057058
0.310257 0.534116 0.056829
0.337487 0.534276 0.056600
0.364717 0.534435 0.056370
0.391947 0.534595 0.056141
0.419178 0.534754 0.055912
0.446408 0.534914 0.055683
0.473638 0.535073 0.055454
0.500868 0.535232 0.055224
0.528098 0.535392 0.054995
0.555329 0.535551 0.054766
0.582559 0.535711 0.054537
0.609789 0.535870 0.054308
0.637019 0.536030 0.054078
0.664249 0.536189 0.053849
0.691480 0.536349 0.053620
0.718710 0.536508 0.053391
0.745940 0.536668 0.053161
0.773170 0.536827 0.052932
0.800400 0.536986 0.052703
0.827630 0.537146 0.052474
0.854861 0.537305 0.052245
0.882091 0.537465 0.052015
0.909321 0.537624 0.051786
0.936551 0.537784 0.051557
0.067431 0.559780 0.058121
0.094661 0.559940 0.057891
0.121892 0.560099 0.057662
0.149122 0.560259 0.057433
0.176352 0.560418 0.057204
0.203582 0.560577 0.056975
0.230812 0.560737 0.056745
0.258043 0.560896 0.056516
0.285273 0.561056 0.056287
0.312503 0.561215 0.056058
0.339733 0.561375 0.055829
0.366963 0.561534 0.055599
0.394194 0.561694 0.055370
0.421424 0.561853 0.055141
0.448654 0.562013 0.054912
0.475884 0.562172 0.054683
0.503114 0.562331 0.054453
0.530344 0.562491 0.054224
0.557575 0.562650 0.053995
0.584805 0.562810 0.053766
0.612035 0.562969 0.053536
0.639265 0.563129 0.053307
0.666495 0.563288 0.053078
0.693726 0.563448 0.052849
0.720956 0.563607 0.052620
0.748186 0.563766 0.052390
0.775416 0.563926 0.052161
0.802646 0.564085 0.051932
0.829877 0.564245 0.051703
0.857107 0.564404 0.051474
0.884337 0.564564 0.051244
0.911567 0.564723 0.051015
0.938797 0.564883 0.050786
0.069677 0.586879 0.057350
0.096908 0.587039 0.057120
0.124138 0.587198 0.056891
0.151368 0.587357 0.056662
0.178598 0.587517 0.056433
0.205828 0.587676 0.056204
0.233059 0.587836 0.055974
0.260289 0.587995 0.055745
0.287519 0.588155 0.055516
0.314749 0.588314 0.055287
0.341979 0.588474 0.055057
0.369209 0.588633 0.054828
0.396440 0.588792 0.054599
0.423670 0.588952 0.054370
0.450900 0.589111 0.054141
0.478130 0.589271 0.053911
0.505360 0.589430 0.053682
0.532591 0.589590 0.053453
0.559821 0.589749 0.053224
0.587051 0.589909 0.052995
0.614281 0.590068 0.052765
0.641511 0.590228 0.052536
0.668742 0.590387 0.052307
0.695972 0.590546 0.052078
0.723202 0.590706 0.051849
0.750432 0.590865 0.051619
0.777662 0.591025 0.051390
0.804893 0.591184 0.051161
0.832123 0.591344 0.050932
0.859353 0.591503 0.050703
0.886583 0.591663 0.050473
0.913813 0.591822 0.050244
0.941044 0.591981 0.050015
0.071923 0.613978 0.056579
0.099154 0.614137 0.056349
0.126384 0.614297 0.056120
0.153614 0.614456 0.055891
0.180844 0.614616 0.055662
0.208074 0.614775 0.055432
0.235305 0.614935 0.055203
0.262535 0.615094 0.054974
0.289765 0.615254 0.054745
0.316995 0.615413 0.054516
0.344225 0.615572 0.054286
0.371456 0.615732 0.054057
0.398686 0.615891 0.053828
0.425916 0.616051 0.053599
0.453146 0.616210 0.053370
0.480376 0.616370 0.053140
0.507607 0.616529 0.052911
0.534837 0.616689 0.052682
0.562067 0.616848 0.052453
0.589297 0.617008 0.052224
0.616527 0.617167 0.051994
0.643758 0.617326 0.051765
0.670988 0.617486 0.051536
0.698218 0.617645 0.051307
0.725448 0.617805 0.051077
0.752678 0.617964 0.050848
0.779909 0.618124 0.050619
0.807139 0.618283 0.050390
0.834369 0.618443 0.050161
0.861599 0.618602 0.049931
0.888829 0.618761 0.049702
0.916060 0.618921 0.049473
0.943290 0.619080 0.049244
0.074170 0.641077 0.055807
0.101400 0.641236 0.055578
0.128630 0.641396 0.055349
0.155860 0.641555 0.055120
0.183090 0.641715 0.054891
0.210321 0.641874 0.054661
0.237551 0.642034 0.054432
0.264781 0.642193 0.054203
0.292011 0.642352 0.053974
0.319241 0.642512 0.053745
0.346472 0.642671 0.053515
0.373702 0.642831 0.053286
0.400932 0.642990 0.053057
0.428162 0.643150 0.052828
0.455392 0.643309 0.052598
0.482623 0.643469 0.052369
0.509853 0.643628 0.052140
0.537083 0.643788 0.051911
0.564313 0.643947 0.051682
0.591543 0.644106 0.051452
0.618774 0.644266 0.051223
0.646004 0.644425 0.050994
0.673234 0.644585 0.050765
0.700464 0.644744 0.050536
0.727694 0.644904 0.050306
0.754925 0.645063 0.050077
0.782155 0.645223 0.049848
0.809385 0.645382 0.049619
0.836615 0.645541 0.049390
0.863845 0.645701 0.049160
0.891076 0.645860 0.048931
0.918306 0.646020 0.048702
0.945536 0.646179 0.048473
0.076416 0.668176 0.055036
0.103646 0.668335 0.054807
0.130876 0.668495 0.054578
0.158106 0.668654 0.054349
0.185337 0.668814 0.054120
0.212567 0.668973 0.053890
0.239797 0.669132 0.053661
0.267027 0.669292 0.053432
0.294257 0.669451 0.053203
0.321488 0.669611 0.052973
0.348718 0.669770 0.052744
0.375948 0.669930 0.052515
0.403178 0.670089 0.052286
0.430408 0.670249 0.052057
0.457639 0.670408 0.051827
0.484869 0.670568 0.051598
0.512099 0.670727 0.051369
0.539329 0.670886 0.051140
0.566559 0.671046 0.050911
0.593790 0.671205 0.050681
0.621020 0.671365 0.050452
0.648250 0.671524 0.050223
0.675480 0.671684 0.049994
0.702710 0.671843 0.049765
0.729941 0.672003 0.049535
0.757171 0.672162 0.049306
0.784401 0.672322 0.049077
0.811631 0.672481 0.048848
0.838861 0.672640 0.048618
0.866092 0.672800 0.048389
0.893322 0.672959 0.048160
0.920552 0.673119 0.047931
0.947782 0.673278 0.047702
0.078662 0.695275 0.054265
0.105892 0.695434 0.054036
0.133122 0.695594 0.053807
0.160353 0.695753 0.053578
0.187583 0.695913 0.053348
0.214813 0.696072 0.053119
0.242043 0.696231 0.052890
0.269273 0.696391 0.052661
0.296504 0.696550 0.052432
0.323734 0.696710 0.052202
0.350964 0.696869 0.051973
0.378194 0.697029 0.051744
0.405424 0.697188 0.051515
0.432655 0.697348 0.051286
0.459885 0.697507 0.051056
0.487115 0.697666 0.050827
0.514345 0.697826 0.050598
0.541575 0.697985 0.050369
0.568806 0.698145 0.050140
0.596036 0.698304 0.049910
0.623266 0.698464 0.049681
0.650496 0.698623 0.049452
0.677726 0.698783 0.049223
0.704957 0.698942 0.048993
0.732187 0.699102 0.048764
0.759417 0.699261 0.048535
0.786647 0.699420 0.048306
0.813877 0.699580 0.048077
0.841108 0.699739 0.047847
0.868338 0.699899 0.047618
0.895568 0.700058 0.047389
0.922798 0.700218 0.047160
0.950028 0.700377 0.046931
0.080908 0.722374 0.053494
0.108138 0.722533 0.053265
0.135369 0.722692 0.053036
0.162599 0.722852 0.052807
0.189829 0.723011 0.052577
0.217059 0.723171 0.052348
0.244289 0.723330 0.052119
0.271520 0.723490 0.051890
0.298750 0.723649 0.051661
0.325980 0.723809 0.051431
0.353210 0.723968 0.051202
0.380440 0.724128 0.050973
0.407671 0.724287 0.050744
0.434901 0.724446 0.050514
0.462131 0.724606 0.050285
0.489361 0.724765 0.050056
0.516591 0.724925 0.049827
0.543822 0.725084 0.049598
0.571052 0.725244 0.049368
0.598282 0.725403 0.049139
0.625512 0.725563 0.048910
0.652742 0.725722 0.048681
0.679973 0.725881 0.048452
0.707203 0.726041 0.048222
0.734433 0.726200 0.047993
0.761663 0.726360 0.047764
0.788893 0.726519 0.047535
0.816124 0.726679 0.047306
0.843354 0.726838 0.047076
0.870584 0.726998 0.046847
0.897814 0.727157 0.046618
0.925044 0.727317 0.046389
0.952274 0.727476 0.046159
0.083154 0.749472 0.052723
0.110385 0.749632 0.052494
0.137615 0.749791 0.052265
0.164845 0.749951 0.052035
0.192075 0.750110 0.051806
0.219305 0.750270 0.051577
0.246536 0.750429 0.051348
0.273766 0.750589 0.051119
0.300996 0.750748 0.050889
0.328226 0.750908 0.050660
0.355456 0.751067 0.050431
0.382687 0.751226 0.050202
0.409917 0.751386 0.049973
0.437147 0.751545 0.049743
0.464377 0.751705 0.049514
0.491607 0.751864 0.049285
0.518838 0.752024 0.049056
0.546068 0.752183 0.048827
0.573298 0.752343 0.048597
0.600528 0.752502 0.048368
0.627758 0.752661 0.048139
0.654989 0.752821 0.047910
0.682219 0.752980 0.047681
0.709449 0.753140 0.047451
0.736679 0.753299 0.047222
0.763909 0.753459 0.046993
0.791139 0.753618 0.046764
0.818370 0.753778 0.046534
0.845600 0.753937 0.046305
0.872830 0.754097 0.046076
0.900060 0.754256 0.045847
0.927290 0.754415 0.045618
0.954521 0.754575 0.045388
0.085401 0.776571 0.051952
0.112631 0.776731 0.051723
0.139861 0.776890 0.051494
0.167091 0.777050 0.051264
0.194321 0.777209 0.051035
0.221552 0.777369 0.050806
0.248782 0.777528 0.050577
0.276012 0.777688 0.050348
0.303242 0.777847 0.050118
0.330472 0.778006 0.049889
0.357703 0.778166 0.049660
0.384933 0.778325 0.049431
0.412163 0.778485 0.049202
0.439393 0.778644 0.048972
0.466623 0.778804 0.048743
0.493854 0.778963 0.048514
0.521084 0.779123 0.048285
0.548314 0.779282 0.048055
0.575544 0.779441 0.047826
0.602774 0.779601 0.047597
0.630004 0.779760 0.047368
0.657235 0.779920 0.047139
0.684465 0.780079 0.046909
0.711695 0.780239 0.046680
0.738925 0.780398 0.046451
0.766155 0.780558 0.046222
