scripts/projects/editorial.cube
# Katherine Feemster — editorial teal/amber LUT (33-pt cube)
LUT_3D_SIZE 5
DOMAIN_MIN 0.0 0.0 0.0
DOMAIN_MAX 1.0 1.0 1.0
0.027000 0.072000 0.072000
0.244842 0.073276 0.070166
0.462683 0.074551 0.068333
0.680525 0.075827 0.066499
0.898366 0.077102 0.064665
0.044969 0.288791 0.065831
0.262811 0.290067 0.063998
0.480653 0.291342 0.062164
0.698494 0.292618 0.060330
0.916336 0.293894 0.058497
0.062939 0.505582 0.059663
0.280780 0.506858 0.057829
0.498622 0.508134 0.055995
0.716464 0.509409 0.054162
0.934305 0.510685 0.052328
0.080908 0.722374 0.053494
0.298750 0.723649 0.051661
0.516591 0.724925 0.049827
0.734433 0.726200 0.047993
0.952274 0.727476 0.046159
0.098878 0.939165 0.047326
0.316719 0.940440 0.045492
0.534561 0.941716 0.043658
0.752402 0.942992 0.041825
0.970244 0.944267 0.039991
0.028814 0.072433 0.283877
0.246656 0.073709 0.282044
0.464497 0.074984 0.280210
0.682339 0.076260 0.278376
0.900180 0.077536 0.276543
0.046783 0.289224 0.277709
0.264625 0.290500 0.275875
0.482467 0.291776 0.274041
0.700308 0.293051 0.272208
0.918150 0.294327 0.270374
0.064753 0.506016 0.271540
0.282594 0.507291 0.269706
0.500436 0.508567 0.267873
0.718278 0.509842 0.266039
0.936119 0.511118 0.264205
0.082722 0.722807 0.265371
0.300564 0.724082 0.263538
0.518405 0.725358 0.261704
0.736247 0.726634 0.259870
0.954089 0.727909 0.258037
0.100692 0.939598 0.259203
0.318533 0.940874 0.257369
0.536375 0.942149 0.255536
0.754216 0.943425 0.253702
0.972058 0.944700 0.251868
0.030628 0.072866 0.495755
0.248470 0.074142 0.493921
0.466311 0.075418 0.492087
0.684153 0.076693 0.490254
0.901994 0.077969 0.488420
0.048597 0.289658 0.489586
0.266439 0.290933 0.487752
0.484281 0.292209 0.485919
0.702122 0.293484 0.484085
0.919964 0.294760 0.482251
0.066567 0.506449 0.483417
0.284408 0.507724 0.481584
0.502250 0.509000 0.479750
0.720092 0.510276 0.477916
0.937933 0.511551 0.476083
0.084536 0.723240 0.477249
0.302378 0.724516 0.475415
0.520219 0.725791 0.473581
0.738061 0.727067 0.471748
0.955903 0.728342 0.469914
0.102506 0.940031 0.471080
0.320347 0.941307 0.469246
0.538189 0.942582 0.467413
0.756030 0.943858 0.465579
0.973872 0.945134 0.463745
0.032442 0.073300 0.707632
0.250284 0.074575 0.705798
0.468125 0.075851 0.703964
0.685967 0.077126 0.702131
0.903808 0.078402 0.700297
0.050411 0.290091 0.701463
0.268253 0.291366 0.699630
0.486095 0.292642 0.697796
0.703936 0.293918 0.695962
0.921778 0.295193 0.694129
0.068381 0.506882 0.695295
0.286222 0.508158 0.693461
0.504064 0.509433 0.691627
0.721906 0.510709 0.689794
0.939747 0.511984 0.687960
0.086350 0.723673 0.689126
0.304192 0.724949 0.687292
0.522033 0.726224 0.685459
0.739875 0.727500 0.683625
0.957717 0.728776 0.681791
0.104320 0.940464 0.682957
0.322161 0.941740 0.681124
0.540003 0.943016 0.679290
0.757844 0.944291 0.677456
0.975686 0.945567 0.675623
0.034256 0.073733 0.919509
0.252098 0.075008 0.917675
0.469939 0.076284 0.915842
0.687781 0.077560 0.914008
0.905622 0.078835 0.912174
0.052225 0.290524 0.913340
0.270067 0.291800 0.911507
0.487909 0.293075 0.909673
0.705750 0.294351 0.907839
0.923592 0.295626 0.906006
0.070195 0.507315 0.907172
0.288036 0.508591 0.905338
0.505878 0.509866 0.903505
0.723720 0.511142 0.901671
0.941561 0.512418 0.899837
0.088164 0.724106 0.901003
0.306006 0.725382 0.899170
0.523847 0.726658 0.897336
0.741689 0.727933 0.895502
0.959531 0.729209 0.893669
0.106134 0.940898 0.894835
0.323975 0.942173 0.893001
0.541817 0.943449 0.891167
0.759658 0.944724 0.889334
0.977500 0.946000 0.887500
