scripts/projects/editorial.cube
# Katherine Feemster — editorial teal/amber LUT (33-pt cube)
LUT_3D_SIZE 9
DOMAIN_MIN 0.0 0.0 0.0
DOMAIN_MAX 1.0 1.0 1.0
0.027000 0.072000 0.072000
0.135921 0.072638 0.071083
0.244842 0.073276 0.070166
0.353762 0.073913 0.069249
0.462683 0.074551 0.068333
0.571604 0.075189 0.067416
0.680525 0.075827 0.066499
0.789446 0.076465 0.065582
0.898366 0.077102 0.064665
0.035985 0.180396 0.068916
0.144905 0.181033 0.067999
0.253826 0.181671 0.067082
0.362747 0.182309 0.066165
0.471668 0.182947 0.065248
0.580589 0.183585 0.064332
0.689509 0.184222 0.063415
0.798430 0.184860 0.062498
0.907351 0.185498 0.061581
0.044969 0.288791 0.065831
0.153890 0.289429 0.064915
0.262811 0.290067 0.063998
0.371732 0.290705 0.063081
0.480653 0.291342 0.062164
0.589573 0.291980 0.061247
0.698494 0.292618 0.060330
0.807415 0.293256 0.059414
0.916336 0.293894 0.058497
0.053954 0.397187 0.062747
0.162875 0.397825 0.061830
0.271796 0.398462 0.060913
0.380716 0.399100 0.059997
0.489637 0.399738 0.059080
0.598558 0.400376 0.058163
0.707479 0.401014 0.057246
0.816400 0.401651 0.056329
0.925320 0.402289 0.055412
0.062939 0.505582 0.059663
0.171860 0.506220 0.058746
0.280780 0.506858 0.057829
0.389701 0.507496 0.056912
0.498622 0.508134 0.055995
0.607543 0.508771 0.055079
0.716464 0.509409 0.054162
0.825384 0.510047 0.053245
0.934305 0.510685 0.052328
0.071923 0.613978 0.056579
0.180844 0.614616 0.055662
0.289765 0.615254 0.054745
0.398686 0.615891 0.053828
0.507607 0.616529 0.052911
0.616527 0.617167 0.051994
0.725448 0.617805 0.051077
0.834369 0.618443 0.050161
0.943290 0.619080 0.049244
0.080908 0.722374 0.053494
0.189829 0.723011 0.052577
0.298750 0.723649 0.051661
0.407671 0.724287 0.050744
0.516591 0.724925 0.049827
0.625512 0.725563 0.048910
0.734433 0.726200 0.047993
0.843354 0.726838 0.047076
0.952274 0.727476 0.046159
0.089893 0.830769 0.050410
0.198814 0.831407 0.049493
0.307734 0.832045 0.048576
0.416655 0.832683 0.047659
0.525576 0.833320 0.046743
0.634497 0.833958 0.045826
0.743418 0.834596 0.044909
0.852338 0.835234 0.043992
0.961259 0.835872 0.043075
0.098878 0.939165 0.047326
0.207798 0.939803 0.046409
0.316719 0.940440 0.045492
0.425640 0.941078 0.044575
0.534561 0.941716 0.043658
0.643482 0.942354 0.042741
0.752402 0.942992 0.041825
0.861323 0.943629 0.040908
0.970244 0.944267 0.039991
0.027907 0.072217 0.177939
0.136828 0.072854 0.177022
0.245749 0.073492 0.176105
0.354669 0.074130 0.175188
0.463590 0.074768 0.174271
0.572511 0.075406 0.173354
0.681432 0.076043 0.172438
0.790353 0.076681 0.171521
0.899273 0.077319 0.170604
0.036892 0.180612 0.174854
0.145812 0.181250 0.173937
0.254733 0.181888 0.173021
0.363654 0.182526 0.172104
0.472575 0.183163 0.171187
0.581496 0.183801 0.170270
0.690416 0.184439 0.169353
0.799337 0.185077 0.168436
0.908258 0.185715 0.167520
0.045876 0.289008 0.171770
0.154797 0.289646 0.170853
0.263718 0.290283 0.169936
0.372639 0.290921 0.169020
0.481560 0.291559 0.168103
0.590480 0.292197 0.167186
0.699401 0.292835 0.166269
0.808322 0.293472 0.165352
0.917243 0.294110 0.164435
0.054861 0.397403 0.168686
0.163782 0.398041 0.167769
0.272703 0.398679 0.166852
0.381623 0.399317 0.165935
0.490544 0.399955 0.165018
0.599465 0.400592 0.164102
0.708386 0.401230 0.163185
0.817307 0.401868 0.162268
0.926227 0.402506 0.161351
0.063846 0.505799 0.165601
0.172767 0.506437 0.164685
0.281687 0.507075 0.163768
0.390608 0.507712 0.162851
0.499529 0.508350 0.161934
0.608450 0.508988 0.161017
0.717371 0.509626 0.160100
0.826291 0.510264 0.159184
0.935212 0.510901 0.158267
0.072831 0.614195 0.162517
0.181751 0.614832 0.161600
0.290672 0.615470 0.160683
0.399593 0.616108 0.159767
0.508514 0.616746 0.158850
0.617434 0.617384 0.157933
0.726355 0.618021 0.157016
0.835276 0.618659 0.156099
0.944197 0.619297 0.155182
0.081815 0.722590 0.159433
0.190736 0.723228 0.158516
0.299657 0.723866 0.157599
0.408578 0.724504 0.156682
0.517498 0.725141 0.155765
0.626419 0.725779 0.154849
0.735340 0.726417 0.153932
0.844261 0.727055 0.153015
0.953182 0.727693 0.152098
0.090800 0.830986 0.156349
0.199721 0.831624 0.155432
0.308641 0.832261 0.154515
0.417562 0.832899 0.153598
0.526483 0.833537 0.152681
0.635404 0.834175 0.151764
0.744325 0.834813 0.150848
0.853245 0.835450 0.149931
0.962166 0.836088 0.149014
0.099785 0.939381 0.153264
0.208705 0.940019 0.152347
0.317626 0.940657 0.151431
0.426547 0.941295 0.150514
0.535468 0.941933 0.149597
0.644389 0.942570 0.148680
0.753309 0.943208 0.147763
0.862230 0.943846 0.146846
0.971151 0.944484 0.145930
0.028814 0.072433 0.283877
0.137735 0.073071 0.282960
0.246656 0.073709 0.282044
0.355576 0.074347 0.281127
0.464497 0.074984 0.280210
0.573418 0.075622 0.279293
0.682339 0.076260 0.278376
0.791260 0.076898 0.277459
0.900180 0.077536 0.276543
0.037799 0.180829 0.280793
0.146720 0.181467 0.279876
0.255640 0.182104 0.278959
0.364561 0.182742 0.278042
0.473482 0.183380 0.277126
0.582403 0.184018 0.276209
0.691323 0.184656 0.275292
0.800244 0.185293 0.274375
0.909165 0.185931 0.273458
0.046783 0.289224 0.277709
0.155704 0.289862 0.276792
0.264625 0.290500 0.275875
0.373546 0.291138 0.274958
0.482467 0.291776 0.274041
0.591387 0.292413 0.273124
0.700308 0.293051 0.272208
0.809229 0.293689 0.271291
0.918150 0.294327 0.270374
0.055768 0.397620 0.274624
0.164689 0.398258 0.273708
0.273610 0.398896 0.272791
0.382530 0.399533 0.271874
0.491451 0.400171 0.270957
0.600372 0.400809 0.270040
0.709293 0.401447 0.269123
0.818214 0.402085 0.268207
0.927134 0.402722 0.267290
0.064753 0.506016 0.271540
0.173674 0.506653 0.270623
0.282594 0.507291 0.269706
0.391515 0.507929 0.268790
0.500436 0.508567 0.267873
0.609357 0.509205 0.266956
0.718278 0.509842 0.266039
0.827198 0.510480 0.265122
0.936119 0.511118 0.264205
0.073738 0.614411 0.268456
0.182658 0.615049 0.267539
0.291579 0.615687 0.266622
0.400500 0.616325 0.265705
0.509421 0.616962 0.264788
0.618341 0.617600 0.263872
0.727262 0.618238 0.262955
0.836183 0.618876 0.262038
0.945104 0.619514 0.261121
0.082722 0.722807 0.265371
0.191643 0.723445 0.264455
0.300564 0.724082 0.263538
0.409485 0.724720 0.262621
0.518405 0.725358 0.261704
0.627326 0.725996 0.260787
0.736247 0.726634 0.259870
0.845168 0.727271 0.258954
0.954089 0.727909 0.258037
0.091707 0.831202 0.262287
0.200628 0.831840 0.261370
0.309549 0.832478 0.260454
0.418469 0.833116 0.259537
0.527390 0.833754 0.258620
0.636311 0.834391 0.257703
0.745232 0.835029 0.256786
0.854152 0.835667 0.255869
0.963073 0.836305 0.254952
0.100692 0.939598 0.259203
0.209612 0.940236 0.258286
0.318533 0.940874 0.257369
0.427454 0.941511 0.256452
0.536375 0.942149 0.255536
0.645296 0.942787 0.254619
0.754216 0.943425 0.253702
0.863137 0.944063 0.252785
0.972058 0.944700 0.251868
0.029721 0.072650 0.389816
0.138642 0.073288 0.388899
0.247563 0.073925 0.387982
0.356483 0.074563 0.387065
0.465404 0.075201 0.386149
0.574325 0.075839 0.385232
0.683246 0.076477 0.384315
0.792167 0.077114 0.383398
0.901087 0.077752 0.382481
0.038706 0.181045 0.386732
0.147627 0.181683 0.385815
0.256547 0.182321 0.384898
0.365468 0.182959 0.383981
0.474389 0.183597 0.383064
0.583310 0.184234 0.382147
0.692230 0.184872 0.381231
0.801151 0.185510 0.380314
0.910072 0.186148 0.379397
0.047690 0.289441 0.383647
0.156611 0.290079 0.382730
0.265532 0.290717 0.381814
0.374453 0.291354 0.380897
0.483374 0.291992 0.379980
0.592294 0.292630 0.379063
0.701215 0.293268 0.378146
0.810136 0.293906 0.377229
0.919057 0.294543 0.376313
0.056675 0.397837 0.380563
0.165596 0.398474 0.379646
0.274517 0.399112 0.378729
0.383437 0.399750 0.377812
0.492358 0.400388 0.376896
0.601279 0.401026 0.375979
0.710200 0.401663 0.375062
0.819121 0.402301 0.374145
0.928041 0.402939 0.373228
0.065660 0.506232 0.377479
0.174581 0.506870 0.376562
0.283501 0.507508 0.375645
0.392422 0.508146 0.374728
0.501343 0.508783 0.373811
0.610264 0.509421 0.372895
0.719185 0.510059 0.371978
0.828105 0.510697 0.371061
0.937026 0.511335 0.370144
0.074645 0.614628 0.374394
0.183565 0.615266 0.373478
0.292486 0.615903 0.372561
0.401407 0.616541 0.371644
0.510328 0.617179 0.370727
0.619248 0.617817 0.369810
0.728169 0.618455 0.368893
0.837090 0.619092 0.367977
0.946011 0.619730 0.367060
0.083629 0.723023 0.371310
0.192550 0.723661 0.370393
0.301471 0.724299 0.369476
0.410392 0.724937 0.368560
0.519312 0.725575 0.367643
0.628233 0.726212 0.366726
0.737154 0.726850 0.365809
0.846075 0.727488 0.364892
0.954996 0.728126 0.363975
0.092614 0.831419 0.368226
0.201535 0.832057 0.367309
0.310456 0.832695 0.366392
0.419376 0.833332 0.365475
0.528297 0.833970 0.364558
0.637218 0.834608 0.363642
0.746139 0.835246 0.362725
0.855059 0.835884 0.361808
0.963980 0.836521 0.360891
0.101599 0.939815 0.365142
0.210519 0.940452 0.364225
0.319440 0.941090 0.363308
0.428361 0.941728 0.362391
0.537282 0.942366 0.361474
0.646203 0.943004 0.360557
0.755123 0.943641 0.359640
0.864044 0.944279 0.358724
0.972965 0.944917 0.357807
0.030628 0.072866 0.495755
0.139549 0.073504 0.494838
0.248470 0.074142 0.493921
0.357390 0.074780 0.493004
0.466311 0.075418 0.492087
0.575232 0.076055 0.491170
0.684153 0.076693 0.490254
0.793074 0.077331 0.489337
0.901994 0.077969 0.488420
0.039613 0.181262 0.492670
0.148534 0.181900 0.491753
0.257454 0.182538 0.490837
0.366375 0.183175 0.489920
0.475296 0.183813 0.489003
0.584217 0.184451 0.488086
0.693137 0.185089 0.487169
0.802058 0.185727 0.486252
0.910979 0.186364 0.485336
0.048597 0.289658 0.489586
0.157518 0.290295 0.488669
0.266439 0.290933 0.487752
0.375360 0.291571 0.486835
0.484281 0.292209 0.485919
0.593201 0.292847 0.485002
0.702122 0.293484 0.484085
0.811043 0.294122 0.483168
0.919964 0.294760 0.482251
0.057582 0.398053 0.486502
0.166503 0.398691 0.485585
0.275424 0.399329 0.484668
0.384345 0.399967 0.483751
0.493265 0.400604 0.482834
0.602186 0.401242 0.481917
0.711107 0.401880 0.481001
0.820028 0.402518 0.480084
0.928948 0.403156 0.479167
0.066567 0.506449 0.483417
0.175488 0.507087 0.482501
0.284408 0.507724 0.481584
0.393329 0.508362 0.480667
0.502250 0.509000 0.479750
0.611171 0.509638 0.478833
0.720092 0.510276 0.477916
0.829012 0.510913 0.476999
0.937933 0.511551 0.476083
0.075552 0.614844 0.480333
0.184472 0.615482 0.479416
0.293393 0.616120 0.478499
0.402314 0.616758 0.477583
0.511235 0.617396 0.476666
0.620155 0.618033 0.475749
0.729076 0.618671 0.474832
0.837997 0.619309 0.473915
0.946918 0.619947 0.472998
0.084536 0.723240 0.477249
0.193457 0.723878 0.476332
0.302378 0.724516 0.475415
0.411299 0.725153 0.474498
0.520219 0.725791 0.473581
0.629140 0.726429 0.472665
0.738061 0.727067 0.471748
0.846982 0.727705 0.470831
0.955903 0.728342 0.469914
0.093521 0.831636 0.474164
0.202442 0.832273 0.473248
0.311363 0.832911 0.472331
0.420283 0.833549 0.471414
0.529204 0.834187 0.470497
0.638125 0.834825 0.469580
0.747046 0.835462 0.468663
0.855966 0.836100 0.467747
0.964887 0.836738 0.466830
0.102506 0.940031 0.471080
0.211426 0.940669 0.470163
0.320347 0.941307 0.469246
0.429268 0.941945 0.468330
0.538189 0.942582 0.467413
0.647110 0.943220 0.466496
0.756030 0.943858 0.465579
0.864951 0.944496 0.464662
0.973872 0.945134 0.463745
0.031535 0.073083 0.601693
0.140456 0.073721 0.600776
0.249377 0.074359 0.599860
0.358297 0.074996 0.598943
0.467218 0.075634 0.598026
0.576139 0.076272 0.597109
0.685060 0.076910 0.596192
0.793981 0.077548 0.595275
0.902901 0.078185 0.594358
0.040520 0.181479 0.598609
0.149441 0.182116 0.597692
0.258361 0.182754 0.596775
0.367282 0.183392 0.595858
0.476203 0.184030 0.594942
0.585124 0.184668 0.594025
0.694044 0.185305 0.593108
0.802965 0.185943 0.592191
0.911886 0.186581 0.591274
0.049504 0.289874 0.595525
0.158425 0.290512 0.594608
0.267346 0.291150 0.593691
0.376267 0.291788 0.592774
0.485188 0.292425 0.591857
0.594108 0.293063 0.590940
0.703029 0.293701 0.590024
0.811950 0.294339 0.589107
0.920871 0.294977 0.588190
0.058489 0.398270 0.592440
0.167410 0.398908 0.591523
0.276331 0.399545 0.590607
0.385252 0.400183 0.589690
0.494172 0.400821 0.588773
0.603093 0.401459 0.587856
0.712014 0.402097 0.586939
0.820935 0.402734 0.586022
0.929855 0.403372 0.585106
0.067474 0.506665 0.589356
0.176395 0.507303 0.588439
0.285315 0.507941 0.587522
0.394236 0.508579 0.586605
0.503157 0.509217 0.585689
0.612078 0.509854 0.584772
0.720999 0.510492 0.583855
0.829919 0.511130 0.582938
0.938840 0.511768 0.582021
0.076459 0.615061 0.586272
0.185379 0.615699 0.585355
0.294300 0.616337 0.584438
0.403221 0.616974 0.583521
0.512142 0.617612 0.582604
0.621062 0.618250 0.581688
0.729983 0.618888 0.580771
0.838904 0.619526 0.579854
0.947825 0.620163 0.578937
0.085443 0.723457 0.583187
0.194364 0.724094 0.582271
0.303285 0.724732 0.581354
0.412206 0.725370 0.580437
0.521126 0.726008 0.579520
0.630047 0.726646 0.578603
0.738968 0.727283 0.577686
0.847889 0.727921 0.576770
0.956810 0.728559 0.575853
0.094428 0.831852 0.580103
0.203349 0.832490 0.579186
0.312270 0.833128 0.578269
0.421190 0.833766 0.577353
0.530111 0.834403 0.576436
0.639032 0.835041 0.575519
0.747953 0.835679 0.574602
0.856873 0.836317 0.573685
0.965794 0.836955 0.572768
0.103413 0.940248 0.577019
0.212333 0.940886 0.576102
0.321254 0.941523 0.575185
0.430175 0.942161 0.574268
0.539096 0.942799 0.573351
0.648017 0.943437 0.572435
0.756937 0.944075 0.571518
0.865858 0.944712 0.570601
0.974779 0.945350 0.569684
0.032442 0.073300 0.707632
0.141363 0.073937 0.706715
0.250284 0.074575 0.705798
0.359204 0.075213 0.704881
0.468125 0.075851 0.703964
0.577046 0.076489 0.703048
0.685967 0.077126 0.702131
0.794888 0.077764 0.701214
0.903808 0.078402 0.700297
0.041427 0.181695 0.704548
0.150348 0.182333 0.703631
0.259268 0.182971 0.702714
0.368189 0.183609 0.701797
0.477110 0.184246 0.700880
0.586031 0.184884 0.699963
0.694951 0.185522 0.699046
0.803872 0.186160 0.698130
0.912793 0.186798 0.697213
0.050411 0.290091 0.701463
0.159332 0.290729 0.700546
0.268253 0.291366 0.699630
0.377174 0.292004 0.698713
0.486095 0.292642 0.697796
0.595015 0.293280 0.696879
0.703936 0.293918 0.695962
0.812857 0.294555 0.695045
0.921778 0.295193 0.694129
0.059396 0.398486 0.698379
0.168317 0.399124 0.697462
0.277238 0.399762 0.696545
0.386159 0.400400 0.695628
0.495079 0.401038 0.694712
0.604000 0.401675 0.693795
0.712921 0.402313 0.692878
0.821842 0.402951 0.691961
0.930762 0.403589 0.691044
0.068381 0.506882 0.695295
0.177302 0.507520 0.694378
0.286222 0.508158 0.693461
0.395143 0.508795 0.692544
0.504064 0.509433 0.691627
0.612985 0.510071 0.690710
0.721906 0.510709 0.689794
0.830826 0.511347 0.688877
0.939747 0.511984 0.687960
0.077366 0.615278 0.692210
0.186286 0.615915 0.691293
0.295207 0.616553 0.690377
0.404128 0.617191 0.689460
0.513049 0.617829 0.688543
0.621970 0.618467 0.687626
0.730890 0.619104 0.686709
0.839811 0.619742 0.685792
0.948732 0.620380 0.684876
0.086350 0.723673 0.689126
0.195271 0.724311 0.688209
0.304192 0.724949 0.687292
0.413113 0.725587 0.686376
0.522033 0.726224 0.685459
0.630954 0.726862 0.684542
0.739875 0.727500 0.683625
0.848796 0.728138 0.682708
0.957717 0.728776 0.681791
0.095335 0.832069 0.686042
0.204256 0.832707 0.685125
0.313177 0.833344 0.684208
0.422097 0.833982 0.683291
0.531018 0.834620 0.682374
0.639939 0.835258 0.681458
0.748860 0.835896 0.680541
0.857780 0.836533 0.679624
0.966701 0.837171 0.678707
0.104320 0.940464 0.682957
0.213240 0.941102 0.682041
0.322161 0.941740 0.681124
0.431082 0.942378 0.680207
0.540003 0.943016 0.679290
0.648924 0.943653 0.678373
0.757844 0.944291 0.677456
0.866765 0.944929 0.676540
0.975686 0.945567 0.675623
0.033349 0.073516 0.813570
0.142270 0.074154 0.812654
0.251191 0.074792 0.811737
0.360111 0.075430 0.810820
0.469032 0.076067 0.809903
0.577953 0.076705 0.808986
0.686874 0.077343 0.808069
0.795795 0.077981 0.807153
0.904715 0.078619 0.806236
0.042334 0.181912 0.810486
0.151255 0.182550 0.809569
0.260175 0.183187 0.808652
0.369096 0.183825 0.807736
0.478017 0.184463 0.806819
0.586938 0.185101 0.805902
0.695859 0.185739 0.804985
0.804779 0.186376 0.804068
0.913700 0.187014 0.803151
0.051318 0.290307 0.807402
0.160239 0.290945 0.806485
0.269160 0.291583 0.805568
0.378081 0.292221 0.804651
0.487002 0.292859 0.803735
0.595922 0.293496 0.802818
0.704843 0.294134 0.801901
0.813764 0.294772 0.800984
0.922685 0.295410 0.800067
0.060303 0.398703 0.804318
0.169224 0.399341 0.803401
0.278145 0.399979 0.802484
0.387066 0.400616 0.801567
0.495986 0.401254 0.800650
0.604907 0.401892 0.799733
0.713828 0.402530 0.798817
0.822749 0.403168 0.797900
0.931669 0.403805 0.796983
0.069288 0.507099 0.801233
0.178209 0.507736 0.800316
0.287129 0.508374 0.799400
0.396050 0.509012 0.798483
0.504971 0.509650 0.797566
0.613892 0.510288 0.796649
0.722813 0.510925 0.795732
0.831733 0.511563 0.794815
0.940654 0.512201 0.793899
0.078273 0.615494 0.798149
0.187193 0.616132 0.797232
0.296114 0.616770 0.796315
0.405035 0.617408 0.795398
0.513956 0.618045 0.794482
0.622877 0.618683 0.793565
0.731797 0.619321 0.792648
0.840718 0.619959 0.791731
0.949639 0.620597 0.790814
0.087257 0.723890 0.795065
0.196178 0.724528 0.794148
0.305099 0.725165 0.793231
0.414020 0.725803 0.792314
0.522940 0.726441 0.791397
0.631861 0.727079 0.790480
0.740782 0.727717 0.789564
0.849703 0.728354 0.788647
0.958624 0.728992 0.787730
0.096242 0.832285 0.791980
0.205163 0.832923 0.791064
0.314084 0.833561 0.790147
0.423004 0.834199 0.789230
0.531925 0.834837 0.788313
0.640846 0.835474 0.787396
0.749767 0.836112 0.786479
0.858688 0.836750 0.785563
0.967608 0.837388 0.784646
0.105227 0.940681 0.788896
0.214147 0.941319 0.787979
0.323068 0.941957 0.787062
0.431989 0.942594 0.786146
0.540910 0.943232 0.785229
0.649831 0.943870 0.784312
0.758751 0.944508 0.783395
0.867672 0.945146 0.782478
0.976593 0.945783 0.781561
0.034256 0.073733 0.919509
0.143177 0.074371 0.918592
0.252098 0.075008 0.917675
0.361018 0.075646 0.916759
0.469939 0.076284 0.915842
0.578860 0.076922 0.914925
0.687781 0.077560 0.914008
0.796702 0.078197 0.913091
0.905622 0.078835 0.912174
0.043241 0.182128 0.916425
0.152162 0.182766 0.915508
0.261082 0.183404 0.914591
0.370003 0.184042 0.913674
0.478924 0.184680 0.912757
0.587845 0.185317 0.911841
0.696766 0.185955 0.910924
0.805686 0.186593 0.910007
0.914607 0.187231 0.909090
0.052225 0.290524 0.913340
0.161146 0.291162 0.912424
0.270067 0.291800 0.911507
0.378988 0.292437 0.910590
0.487909 0.293075 0.909673
0.596829 0.293713 0.908756
0.705750 0.294351 0.907839
0.814671 0.294989 0.906923
0.923592 0.295626 0.906006
0.061210 0.398920 0.910256
0.170131 0.399557 0.909339
0.279052 0.400195 0.908423
0.387973 0.400833 0.907506
0.496893 0.401471 0.906589
0.605814 0.402109 0.905672
0.714735 0.402746 0.904755
0.823656 0.403384 0.903838
0.932577 0.404022 0.902921
0.070195 0.507315 0.907172
0.179116 0.507953 0.906255
0.288036 0.508591 0.905338
0.396957 0.509229 0.904421
0.505878 0.509866 0.903505
0.614799 0.510504 0.902588
0.723720 0.511142 0.901671
0.832640 0.511780 0.900754
0.941561 0.512418 0.899837
0.079180 0.615711 0.904088
0.188100 0.616349 0.903171
0.297021 0.616986 0.902254
0.405942 0.617624 0.901337
0.514863 0.618262 0.900420
0.623784 0.618900 0.899503
0.732704 0.619538 0.898587
0.841625 0.620175 0.897670
0.950546 0.620813 0.896753
0.088164 0.724106 0.901003
0.197085 0.724744 0.900086
0.306006 0.725382 0.899170
0.414927 0.726020 0.898253
0.523847 0.726658 0.897336
0.632768 0.727295 0.896419
0.741689 0.727933 0.895502
0.850610 0.728571 0.894585
0.959531 0.729209 0.893669
0.097149 0.832502 0.897919
0.206070 0.833140 0.897002
0.314991 0.833778 0.896085
0.423911 0.834415 0.895168
0.532832 0.835053 0.894252
0.641753 0.835691 0.893335
0.750674 0.836329 0.892418
0.859595 0.836967 0.891501
0.968515 0.837604 0.890584
0.106134 0.940898 0.894835
0.215054 0.941535 0.893918
0.323975 0.942173 0.893001
0.432896 0.942811 0.892084
0.541817 0.943449 0.891167
0.650738 0.944087 0.890251
0.759658 0.944724 0.889334
0.868579 0.945362 0.888417
0.977500 0.946000 0.887500
